src/icons/eye-open.svg

<svg viewBox="0 0 20 20" fill="none" xmlns="http://www.w3.org/2000/svg">
<path d="M10.0024 15.3774C14.9775 15.3774 18.3327 11.3669 18.3327 10.1231C18.3327 8.87937 14.9714 4.875 10.0024 4.875C5.10006 4.875 1.66602 8.87937 1.66602 10.1231C1.66602 11.3669 5.094 15.3774 10.0024 15.3774ZM10.0024 14.2125C6.12543 14.2125 3.04328 10.9726 3.04328 10.1231C3.04328 9.41328 6.12543 6.03991 10.0024 6.03991C13.8733 6.03991 16.9615 9.41328 16.9615 10.1231C16.9615 10.9726 13.8733 14.2125 10.0024 14.2125ZM10.0024 13.3934C11.8225 13.3934 13.2787 11.9069 13.2787 10.1231C13.2787 8.29691 11.8225 6.85898 10.0024 6.85898C8.17615 6.85898 6.71395 8.29691 6.72001 10.1231C6.73215 11.9069 8.17615 13.3934 10.0024 13.3934ZM10.0024 11.1788C9.41386 11.1788 8.93455 10.7056 8.93455 10.1231C8.93455 9.5407 9.41386 9.06745 10.0024 9.06745C10.5909 9.06745 11.0641 9.5407 11.0641 10.1231C11.0641 10.7056 10.5909 11.1788 10.0024 11.1788Z" fill="currentColor"/>
</svg>

<svg viewBox="0 0 20 20" fill="none" xmlns="http://www.w3.org/2000/svg"><path d="M10.002 15.377c4.975 0 8.33-4.01 8.33-5.254 0-1.244-3.36-5.248-8.33-5.248-4.902 0-8.336 4.004-8.336 5.248 0 1.244 3.428 5.254 8.336 5.254zm0-1.165c-3.877 0-6.959-3.24-6.959-4.089 0-.71 3.082-4.083 6.96-4.083 3.87 0 6.959 3.373 6.959 4.083 0 .85-3.089 4.09-6.96 4.09zm0-.819a3.28 3.28 0 0 0 3.277-3.27 3.249 3.249 0 0 0-3.277-3.264c-1.826 0-3.288 1.438-3.282 3.264.012 1.784 1.456 3.27 3.282 3.27zm0-2.214a1.063 1.063 0 0 1-1.067-1.056c0-.582.479-1.056 1.067-1.056.589 0 1.062.474 1.062 1.056 0 .583-.473 1.056-1.062 1.056z" fill="currentColor"/></svg>
